frontend/public/svg/interface/sun-3.svg

<svg width="107" height="96" viewBox="0 0 107 96" fill="none" xmlns="http://www.w3.org/2000/svg">
<g clip-path="url(#clip0)">
<path d="M59.8827 28.2028C58.1945 27.7517 56.4778 27.414 54.7442 27.1919C53.9564 27.0734 53.1691 26.9548 52.387 26.8144L52.3547 26.8086H52.3225C40.9178 27.0019 32.0273 34.7547 30.7095 45.6678C29.5758 55.0332 33.5786 62.1269 41.6914 65.1297C45.4097 66.5452 49.3521 67.2855 53.332 67.3158C54.722 67.3171 56.1103 67.2185 57.4861 67.0207C62.7383 66.2663 66.7203 63.7202 69.3225 59.4537C70.7858 57.0871 71.9162 54.5316 72.6834 51.8588C75.5791 41.3497 70.0761 31.1795 59.8827 28.2028ZM63.9249 57.7032C61.4216 61.0651 57.7775 62.6256 52.791 62.4665C52.08 62.3608 51.3606 62.2667 50.6439 62.172C49.1036 61.969 47.5111 61.7597 45.976 61.4362C38.7713 59.9183 35.9261 55.9597 36.1562 47.7726C36.2925 42.9146 38.1088 38.8724 41.4077 36.0826C45.1565 32.9126 50.6866 31.4688 56.2031 32.2213C62.7079 33.1085 66.9678 37.9709 67.6 45.2289C67.9923 49.6998 66.6802 54.1538 63.9249 57.7032Z" fill="black"/>
<path d="M26.8085 68.6506C26.2636 68.1642 24.6574 68.6055 24.0706 69.128C20.347 72.4475 16.5025 76.0078 12.6439 79.7106C12.127 80.2615 11.7077 80.8955 11.4036 81.5861C11.3067 81.7794 11.2219 81.9527 11.145 82.0823L11.1049 82.1467L11.0985 82.2246C10.9776 83.6775 11.2278 84.642 11.8528 85.1749C12.2369 85.4803 12.7191 85.6368 13.2101 85.6149C13.564 85.6098 13.9161 85.5621 14.2585 85.4725C14.8636 85.3759 15.4323 85.1214 15.9066 84.7348C20.0296 80.6223 23.6718 76.926 27.0431 73.4339C27.5717 72.8836 27.8626 72.1479 27.8529 71.3863C27.765 70.4869 27.5143 69.2788 26.8085 68.6506Z" fill="black"/>
<path d="M53.8466 75.09C53.611 74.9347 53.343 74.8348 53.0631 74.7981C52.7832 74.7614 52.4985 74.7885 52.2308 74.878C51.3149 75.1357 50.4158 76.5107 50.282 77.4726C49.9969 79.524 49.8761 81.6264 49.7578 83.6578C49.7125 84.4477 49.6666 85.2376 49.6111 86.0263L49.6027 86.3632L49.7817 86.3722C49.7785 86.8703 49.7681 87.3683 49.7578 87.867C49.7045 89.2477 49.726 90.6304 49.8224 92.0092C49.8377 92.5762 49.9678 93.1341 50.2047 93.6502C50.4415 94.1656 50.7805 94.6289 51.2011 95.0109C51.654 95.375 52.2189 95.5721 52.8008 95.5702C52.9331 95.5702 53.0653 95.5605 53.1963 95.5418C55.0533 95.2803 55.9756 93.9872 55.867 91.8049C55.6233 86.9405 55.3053 82.0729 54.9214 77.3373C54.9165 76.9069 54.8178 76.4836 54.6322 76.0957C54.4465 75.7072 54.1785 75.3644 53.8466 75.09Z" fill="black"/>
<path d="M84.3312 76.3072C81.8337 73.5406 79.2509 70.6799 76.6533 67.9172C76.2467 67.5429 75.7607 67.2652 75.2313 67.1047C75.0743 67.0448 74.9308 66.9907 74.819 66.9347L74.7408 66.896L74.6548 66.8999C74.1642 66.9024 73.684 67.0377 73.2652 67.2916C72.8463 67.5454 72.5051 67.9088 72.2782 68.3418C72.0714 68.807 71.9951 69.3185 72.0578 69.8237C72.1205 70.3282 72.3202 70.8062 72.635 71.2063C74.5527 73.9001 76.6791 76.5076 78.7358 79.0294C79.4196 79.8669 80.1041 80.7077 80.7815 81.5511C81.0924 81.9867 81.5519 82.2946 82.0742 82.4184C82.2797 82.4364 82.5033 82.4647 82.7341 82.4931C83.191 82.5601 83.6525 82.6 84.1147 82.6116C84.3428 82.6368 84.5736 82.6149 84.7927 82.5459C85.0118 82.477 85.2141 82.3629 85.3867 82.2115C85.9477 81.5821 85.9942 80.5744 86.0401 79.6002C86.0537 79.3128 86.0666 79.0287 86.0931 78.7626C86.0834 78.5513 86.0304 78.3438 85.9373 78.1531C85.8443 77.9631 85.7131 77.7936 85.5521 77.6557L84.3312 76.3072Z" fill="black"/>
<path d="M21.3839 49.4005C21.5901 49.1346 21.7387 48.8288 21.82 48.5026C21.9014 48.1764 21.9138 47.8368 21.8564 47.5056C21.5979 45.3215 19.6756 45.3447 18.2866 45.3608H18.1813C16.7419 45.3763 15.316 45.4806 13.6633 45.6011C12.911 45.6565 12.1121 45.7151 11.2512 45.7692C10.6999 45.7692 10.102 45.7571 9.46988 45.7448C7.52607 45.6703 5.57962 45.7105 3.64058 45.8652C2.60644 45.9664 0.996378 47.1248 0.823805 48.1254C0.769828 48.3546 0.766271 48.5928 0.813469 48.8235C0.860667 49.0542 0.957481 49.2719 1.09719 49.4617C1.62784 50.1356 2.68915 50.2606 3.64121 50.3251C4.45043 50.3798 5.25702 50.4616 6.06689 50.5428C7.43067 50.6801 8.84228 50.8219 10.2384 50.8302H10.6334C13.0009 50.8302 15.6146 50.7136 18.8153 50.4655C19.2934 50.4699 19.7674 50.3778 20.2088 50.1948C20.6503 50.0117 21.0499 49.7415 21.3839 49.4005Z" fill="black"/>
<path d="M50.2351 3.28613C50.2467 6.1017 50.2997 8.96235 50.3481 11.7264L50.4011 14.7178C50.4011 14.8396 50.3921 14.9691 50.3818 15.0993C50.309 15.4679 50.3595 15.8501 50.5252 16.1875C50.6771 16.4181 50.8264 16.6733 50.9777 16.9323C51.5258 17.8665 52.0926 18.833 52.9452 19.0952C53.1833 19.1711 53.4315 19.2108 53.6814 19.2131C54.0279 19.2147 54.3686 19.1242 54.6684 18.9509C55.5804 18.4277 56.016 17.266 56.2196 16.384C56.4176 15.4002 56.5334 14.4018 56.566 13.399C56.5873 13.042 56.6087 12.6851 56.6371 12.3307L57.0572 12.2019L56.9925 11.9048C56.8038 11.035 56.6254 10.1614 56.447 9.28836C55.9804 6.99854 55.4963 4.63141 54.8157 2.35576C54.5659 1.78094 54.174 1.27856 53.6767 0.895501C53.1794 0.512445 52.5928 0.261187 51.9718 0.165165C51.7462 0.152842 51.5205 0.184966 51.3075 0.259702C51.0944 0.334438 50.8982 0.450313 50.7301 0.600706C50.1788 1.15802 50.2047 2.07743 50.2273 2.8886C50.2306 3.02841 50.2345 3.16242 50.2351 3.28613Z" fill="black"/>
<path d="M74.1299 27.6854C74.9857 27.6879 75.8317 27.5015 76.6067 27.1393C77.3817 26.7771 78.0668 26.2483 78.6123 25.5908C81.2584 22.8061 83.8477 19.8842 86.3529 17.0584L88.0928 15.0984C88.5912 14.5914 88.9673 13.9777 89.1916 13.3041C89.2944 12.9323 89.4708 11.5187 88.8743 11.2107C88.1529 10.9227 87.3541 10.8914 86.6121 11.1218C86.1629 11.2974 85.7705 11.593 85.4784 11.9762C85.3918 12.0702 85.3058 12.163 85.2199 12.2481C84.3421 13.1191 83.4612 13.9878 82.5776 14.8542C80.0569 17.3328 77.4515 19.8958 74.9792 22.5065C74.2527 23.3574 73.6439 24.3015 73.1695 25.3137C72.8812 25.8562 72.5832 26.4167 72.2277 27.0134L71.9873 27.4154L72.4481 27.5069C73.0014 27.6211 73.565 27.6809 74.1299 27.6854Z" fill="black"/>
<path d="M104.58 45.4788C103.662 45.2234 102.716 45.0856 101.764 45.0684C98.4369 45.1644 95.0598 45.3576 91.7938 45.5445C90.6072 45.6124 89.4211 45.6787 88.2351 45.7436C88.1549 45.7474 88.069 45.7436 87.9824 45.7436C87.6611 45.6967 87.3347 45.7704 87.0652 45.9504C86.8901 46.107 86.6929 46.2642 86.4926 46.424C85.7913 46.9838 85.0661 47.5631 84.9504 48.3059C84.8987 48.5414 84.9013 48.7856 84.9581 49.0199C85.0144 49.2543 85.1236 49.4728 85.2774 49.659C85.5696 49.9243 85.9154 50.1247 86.2909 50.2468C86.6671 50.369 87.0646 50.4102 87.4575 50.3677H87.5448C88.8439 50.3509 90.1431 50.3496 91.4429 50.3477C94.3908 50.3432 97.4403 50.3393 100.433 50.1609C102.508 50.0378 104.836 49.4798 106.367 46.2777L106.554 45.8866L106.126 45.8093C105.573 45.7075 105.062 45.5902 104.58 45.4788Z" fill="black"/>
<path d="M30.7128 30.712L31.0929 30.9336L31.2022 30.5084C32.0502 27.2051 32.0126 26.3714 29.6658 24.2355C26.7572 21.5875 23.53 18.8576 19.8058 15.8906C19.2158 15.5379 18.531 15.3752 17.8449 15.4248C17.5543 15.419 17.2643 15.3975 16.9762 15.3604L16.5787 15.2998L16.5935 15.6999C16.5971 15.9857 16.5839 16.2713 16.5541 16.5555C16.4947 17.2765 16.4333 18.022 16.8275 18.4884C20.0463 22.2872 24.5332 27.111 30.7128 30.712Z" fill="black"/>
</g>
<defs>
<clipPath id="clip0">
<rect width="106" height="96" fill="white" transform="translate(0.777344)"/>
</clipPath>
</defs>
</svg>

<svg xmlns="http://www.w3.org/2000/svg" width="107" height="96" fill="none" viewBox="0 0 107 96"><g fill="#000" clip-path="url(#a)"><path d="M59.883 28.203a39 39 0 0 0-5.139-1.011 84 84 0 0 1-2.357-.378l-.032-.005h-.032c-11.405.193-20.296 7.946-21.614 18.859-1.133 9.365 2.87 16.459 10.982 19.462a33.4 33.4 0 0 0 11.641 2.186 29 29 0 0 0 4.154-.295c5.252-.755 9.234-3.3 11.837-7.567a30.4 30.4 0 0 0 3.36-7.595c2.896-10.51-2.607-20.68-12.8-23.656m4.042 29.5c-2.503 3.362-6.147 4.923-11.134 4.764-.711-.106-1.43-.2-2.147-.295-1.54-.203-3.133-.412-4.668-.736-7.205-1.518-10.05-5.476-9.82-13.663.136-4.858 1.953-8.9 5.252-11.69 3.749-3.17 9.279-4.614 14.795-3.862 6.505.888 10.765 5.75 11.397 13.008.392 4.47-.92 8.925-3.675 12.474M26.809 68.65c-.545-.486-2.152-.044-2.738.478a427 427 0 0 0-11.427 10.583 6.7 6.7 0 0 0-1.24 1.875c-.097.193-.182.367-.259.496l-.04.065-.007.078c-.12 1.453.13 2.417.755 2.95.384.305.866.462 1.357.44a4.4 4.4 0 0 0 1.048-.142 3.5 3.5 0 0 0 1.649-.738 838 838 0 0 0 11.136-11.301 2.9 2.9 0 0 0 .81-2.048c-.088-.9-.339-2.107-1.045-2.735m27.039 6.439a1.86 1.86 0 0 0-1.616-.212c-.916.258-1.815 1.633-1.949 2.595-.285 2.051-.406 4.153-.524 6.185-.046.79-.091 1.58-.147 2.368l-.008.337.179.01c-.003.497-.014.995-.024 1.494a38 38 0 0 0 .064 4.142 4.2 4.2 0 0 0 1.38 3.002 2.54 2.54 0 0 0 1.599.56 3 3 0 0 0 .395-.03c1.857-.26 2.78-1.554 2.671-3.736a473 473 0 0 0-.946-14.468 2.95 2.95 0 0 0-1.074-2.247m30.484 1.217c-2.497-2.766-5.08-5.627-7.678-8.39a3.7 3.7 0 0 0-1.422-.812c-.157-.06-.3-.114-.412-.17l-.078-.039-.086.004a2.7 2.7 0 0 0-2.377 1.442 2.8 2.8 0 0 0 .357 2.864c1.918 2.694 4.044 5.302 6.1 7.823.685.838 1.37 1.679 2.046 2.522.311.436.77.744 1.293.867.206.018.43.047.66.075q.687.1 1.38.119a1.65 1.65 0 0 0 1.273-.4c.56-.63.607-1.638.653-2.612.014-.287.027-.571.053-.837a1.55 1.55 0 0 0-.54-1.107zM21.384 49.4a2.42 2.42 0 0 0 .472-1.894c-.258-2.184-2.18-2.161-3.57-2.145h-.105c-1.44.015-2.865.12-4.518.24-.752.056-1.55.114-2.412.168-.551 0-1.149-.012-1.781-.024a50 50 0 0 0-5.83.12c-1.034.101-2.644 1.26-2.816 2.26a1.63 1.63 0 0 0 .273 1.337c.53.674 1.592.799 2.544.863.81.055 1.616.137 2.426.218 1.364.137 2.775.279 4.171.287h.395c2.368 0 4.982-.116 8.182-.364a3.55 3.55 0 0 0 2.569-1.065M50.235 3.286c.012 2.816.065 5.676.113 8.44l.053 2.992q-.002.184-.02.381c-.072.369-.022.751.144 1.088.152.231.301.486.453.745.548.934 1.115 1.901 1.967 2.163a2.5 2.5 0 0 0 .736.118 1.95 1.95 0 0 0 .987-.262c.912-.523 1.348-1.685 1.552-2.567.198-.984.313-1.982.346-2.985q.03-.536.071-1.068l.42-.13-.065-.296q-.28-1.306-.545-2.617c-.467-2.29-.95-4.657-1.631-6.932a3.71 3.71 0 0 0-2.844-2.19A1.72 1.72 0 0 0 50.73.6c-.551.557-.525 1.476-.503 2.288q.007.21.008.397m23.895 24.4a5.81 5.81 0 0 0 4.482-2.094c2.646-2.785 5.236-5.707 7.74-8.533l1.74-1.96a4.66 4.66 0 0 0 1.1-1.794c.102-.372.279-1.785-.318-2.093a3.4 3.4 0 0 0-2.262-.09 2.63 2.63 0 0 0-1.134.855 8 8 0 0 1-.258.272 625 625 0 0 1-2.642 2.606c-2.521 2.479-5.127 5.042-7.599 7.653a12.5 12.5 0 0 0-1.81 2.807 39 39 0 0 1-.941 1.7l-.24.401.46.092a8.7 8.7 0 0 0 1.682.178m30.45 17.794a11.3 11.3 0 0 0-2.816-.41c-3.327.095-6.704.289-9.97.475q-1.78.102-3.559.2c-.08.003-.166 0-.253 0a1.3 1.3 0 0 0-.917.206c-.175.157-.372.314-.572.474-.702.56-1.427 1.14-1.543 1.882a1.59 1.59 0 0 0 .327 1.353 2.8 2.8 0 0 0 2.18.709h.088c1.299-.017 2.598-.018 3.898-.02 2.948-.005 5.997-.009 8.99-.187 2.075-.123 4.403-.681 5.934-3.883l.187-.391-.428-.078a34 34 0 0 1-1.546-.33M30.713 30.712l.38.222.11-.426c.847-3.303.81-4.137-1.537-6.273-2.909-2.648-6.136-5.377-9.86-8.344a3.35 3.35 0 0 0-1.961-.466 8 8 0 0 1-.869-.065l-.397-.06.014.4a7 7 0 0 1-.039.855c-.06.721-.12 1.467.274 1.933 3.218 3.8 7.705 8.623 13.885 12.224"/></g><defs><clipPath id="a"><path fill="#fff" d="M.777 0h106v96h-106z"/></clipPath></defs></svg>
